Obsidian/actions/24s/fork.svg

<svg height="24" viewBox="0 0 24 24" width="24" xmlns="http://www.w3.org/2000/svg"><path d="m2.8398438 1.0058594c-.28103.04373-.84375.2340137-.84375.9335937v12.1269529c0 .93278 1 .933594 1 .933594h9.9902342c.99921 0 1-.933594 1-.933594.0188-.04301.005-6.9522248 0-9.3281248l-3.9960936-3.7324218h-6.9941406s-.0625-.01455002-.15625 0zm6.15625 3.9941406-.6992188 2.0996094 2.699219.9003906-4.0000002 3 .6992187-2.0996094-2.6992187-.9003906z" fill="#bebebe" transform="translate(4 4)"/></svg>

<svg xmlns="http://www.w3.org/2000/svg" width="24" height="24" viewBox="0 0 24 24">
 <defs>
  <style id="current-color-scheme" type="text/css">
   .ColorScheme-Text { color:#bebebe; } .ColorScheme-Highlight { color:#4285f4; }
  </style>
 </defs>
 <path style="fill:currentColor" class="ColorScheme-Text" d="M 2.8398438 1.0058594 C 2.5588138 1.0495894 1.9960938 1.2398731 1.9960938 1.9394531 L 1.9960938 14.066406 C 1.9960938 14.999186 2.9960938 15 2.9960938 15 L 12.986328 15 C 13.985538 15 13.986328 14.066406 13.986328 14.066406 C 14.005128 14.023396 13.991328 7.1141812 13.986328 4.7382812 L 9.9902344 1.0058594 L 2.9960938 1.0058594 C 2.9960938 1.0058594 2.9335938 0.99130938 2.8398438 1.0058594 z M 8.9960938 5 L 8.296875 7.0996094 L 10.996094 8 L 6.9960938 11 L 7.6953125 8.9003906 L 4.9960938 8 L 8.9960938 5 z" transform="translate(4 4)"/>
</svg>
